X:180
%%topspace -50
T: Ashokan Farewell
C: Jay Ungar
R: waltz
M: 3/4
L: 1/4
K: D
 A/c/ |"D"d3/2c/ B/A/ |F3/2 G//F//  E/F/ |"G"G3/2F/ E/D/ |"Em"B,D3/2B,/|\
"D"A,DF|Adf|"D"f3/2g/f|"A"e2 A/c/ |
"D"d3/2c/ B/A/ |F3/2 G//F//  E/F/ |"G"G3/2F/ E/D/ |"Em"B,D3/2B,/|\
"D"A,DF|Adf|"A7"Ace|"D"d2 F/G/ |
"D"A3/F/D|d2A|"G"B3/2c/d|"D"A/F G//F// E|\
"Bm"F3/E/D|B,3/2 C//B,// G,|"A"A,3|"A7"A2 F//E3/4 |
"D"DFA|"C"=c3|"G"B3/2^c/d|"D"A/F G//F//  E/D/ |\
"D"A,DF| "D"A/(d/ d d/)F/ |"A7"E3/2 F//E//  D/C/ |"D"D2|] 

%%newpage
